svgs/microsoft_edge_canary.svg

<svg width="192" height="192" viewBox="0 0 192 192" fill="none" xmlns="http://www.w3.org/2000/svg"><path fill-rule="evenodd" clip-rule="evenodd" d="M39.824 39.043A79.98 79.98 0 0 1 95.998 16c30.529 0 59.268 14.651 72.801 40.967l.015.03.016.03c.114.228.24.476.377.745 2.158 4.251 6.953 13.694 6.787 27.34v.069h-.002a41.532 41.532 0 0 1-2.486 14.024 29.94 29.94 0 0 0-10.694-5.89 29.481 29.481 0 0 0 1.182-8.224v-.037l.002-.036c.143-10.683-3.51-17.902-5.53-21.894l-.004-.007-.335-.665-.006-.01-.006-.01C147.017 40.874 122.925 28 95.998 28a67.981 67.981 0 0 0-47.746 19.586 67.42 67.42 0 0 0-8.883 10.824c8.442-4.82 18.464-7.592 28.88-7.592 2.255 0 14.956.164 26.948 6.413l.002-.003.028.015.017.01.01.005.011.006.02.01.005.002.015.007.011.006-.002.002a47.984 47.984 0 0 1 20.278 19.266h.002l.004.007.002.005.002.003.007.013a.08.08 0 0 1 .008.013l-.002.002c3.018 5.266 4.204 11.165 4.648 15.45a29.832 29.832 0 0 0-11.802 3.171c-.278-2.46-1.163-4.977-2.356-6.586l-.003-.004a12.721 12.721 0 0 0-10.092-5.108h-.04c-2.473-.034-4.351.799-6.144 1.637a12.205 12.205 0 0 0-4.527 4.373 12.226 12.226 0 0 0-1.74 6.14c.012 7.986 3.267 15.535 8.796 21.7A30.231 30.231 0 0 0 92 122v11.043c-10.496-7.507-18.02-18.25-19.943-30.965a40.672 40.672 0 0 0-3.881 9.918 40.68 40.68 0 0 0 6.652 33.707l.022.029.02.028a39.767 39.767 0 0 0 10.884 10.345l.594.372a37.699 37.699 0 0 0 6.172 3.116 29.95 29.95 0 0 0 8.886 16.222 79.823 79.823 0 0 1-36.877-6.282 80.01 80.01 0 0 1-40.908-39.547l-.006-.011-.006-.012a81.333 81.333 0 0 1-7.55-34.969v-.029c.295-21.012 8.783-41.143 23.765-55.922Zm28.424 23.775c1.784 0 12.132.187 21.494 5.098l.057.03.058.029a35.926 35.926 0 0 1 5.71 3.568c-5.138.065-9.018 1.892-10.877 2.767l-.2.094-.052.026-.053.025-.117.06v.001c-.036.02-.072.038-.108.056l-.011.008a52.654 52.654 0 0 0-17.536 14.127 52.688 52.688 0 0 0-1.515 64.018c.013.018.025.038.039.056l.002-.002a51.8 51.8 0 0 0 5.16 6.143c-.141-.058-.283-.113-.425-.169a23.326 23.326 0 0 1-.616-.249 68.013 68.013 0 0 1-34.762-33.592 69.332 69.332 0 0 1-6.44-29.78v-.008c.237-16.873 17.46-32.305 40.192-32.305Z" fill="#000"/><path d="M106 122c0-8.837 7.163-16 16-16h32c8.837 0 16 7.163 16 16v32c0 8.837-7.163 16-16 16h-32c-8.837 0-16-7.163-16-16v-32Z" stroke="#000" stroke-width="12"/><path d="M149.607 148.607a15.01 15.01 0 0 1-7.681 4.105 15 15 0 1 1 7.681-25.319" stroke="#000" stroke-width="8" stroke-linecap="round"/></svg>

<?xml version="1.0" encoding="UTF-8" standalone="no"?><svg xmlns:android="http://schemas.android.com/apk/res/android" height="192" width="192" xmlns="http://www.w3.org/2000/svg">
  <path d="M39.824,39.043C54.794,24.276 74.974,15.998 95.998,16C126.527,16 155.266,30.651 168.799,56.967L168.814,56.996L168.83,57.027C168.944,57.255 169.07,57.503 169.207,57.772C171.365,62.023 176.16,71.466 175.994,85.111V85.127L175.994,85.142L175.994,85.154L175.994,85.166C175.994,85.171 175.994,85.176 175.994,85.182H175.992C175.977,89.983 175.13,94.726 173.506,99.206C170.421,96.564 166.793,94.536 162.812,93.315C163.589,90.655 163.99,87.887 163.994,85.092V85.055L163.996,85.02C164.139,74.336 160.486,67.117 158.466,63.125L158.462,63.118C158.345,62.886 158.233,62.664 158.127,62.453C158.125,62.45 158.123,62.446 158.121,62.443C158.119,62.44 158.117,62.437 158.115,62.434C147.017,40.872 122.925,28 95.998,28C78.129,27.998 60.977,35.034 48.252,47.586C44.896,50.896 41.933,54.532 39.369,58.41C47.811,53.589 57.833,50.818 68.248,50.818C70.504,50.818 83.204,50.982 95.197,57.23L95.199,57.229C95.209,57.233 95.218,57.238 95.227,57.243L95.244,57.253L95.254,57.258L95.265,57.264L95.285,57.273L95.29,57.276L95.305,57.284L95.316,57.289L95.314,57.291C103.835,61.556 110.896,68.262 115.592,76.557H115.594C115.595,76.559 115.596,76.562 115.598,76.564L115.6,76.569L115.602,76.572C115.604,76.577 115.607,76.581 115.609,76.585C115.612,76.589 115.615,76.593 115.617,76.598L115.615,76.6C118.633,81.866 119.819,87.765 120.263,92.049C116.036,92.291 112.042,93.408 108.461,95.221C108.183,92.761 107.298,90.244 106.105,88.635L106.102,88.631C104.927,87.06 103.407,85.78 101.656,84.895C99.905,84.008 97.972,83.539 96.01,83.523H95.99H95.971C93.497,83.489 91.619,84.322 89.826,85.16C87.963,86.199 86.398,87.702 85.299,89.533C84.185,91.389 83.586,93.509 83.559,95.674C83.571,103.659 86.826,111.208 92.355,117.373C92.121,118.881 92,120.427 92,122V133.043C81.504,125.536 73.98,114.793 72.057,102.078C70.341,105.192 69.029,108.523 68.176,111.996C66.759,117.76 66.62,123.765 67.77,129.588C68.919,135.411 71.328,140.911 74.828,145.703L74.85,145.732L74.869,145.76C77.803,149.876 81.508,153.373 85.754,156.105L86.348,156.477C88.311,157.706 90.378,158.748 92.52,159.593C93.715,165.929 96.902,171.562 101.406,175.815C88.888,176.666 76.253,174.558 64.529,169.533C46.51,161.811 31.953,147.737 23.621,129.986L23.615,129.975L23.609,129.963C18.528,119.012 15.95,107.067 16.059,94.994V94.98V94.967V94.965C16.354,73.953 24.842,53.822 39.824,39.043ZM68.248,62.818C70.032,62.818 80.38,63.005 89.742,67.916L89.799,67.945L89.857,67.975C91.882,68.981 93.782,70.19 95.566,71.543C90.429,71.608 86.549,73.435 84.69,74.31L84.49,74.404L84.438,74.43L84.385,74.455C84.345,74.475 84.307,74.495 84.268,74.516L84.268,74.516L84.268,74.516C84.232,74.535 84.196,74.554 84.16,74.572C84.156,74.575 84.153,74.578 84.148,74.58C77.355,77.971 71.371,82.786 66.613,88.707C61.8,94.698 58.355,101.67 56.521,109.133C54.688,116.597 54.51,124.371 55.998,131.912C57.482,139.43 60.588,146.532 65.098,152.725C65.111,152.743 65.123,152.763 65.137,152.781L65.139,152.779C66.7,154.963 68.428,157.014 70.299,158.922C70.158,158.864 70.016,158.809 69.874,158.753C69.668,158.672 69.462,158.591 69.258,158.504C53.95,151.943 41.581,139.991 34.496,124.912C30.169,115.586 27.968,105.414 28.057,95.133V95.131V95.129V95.125V95.123C28.293,78.25 45.516,62.818 68.248,62.818Z" fill="#000000" fill-rule="evenOdd"/>
  <path d="M106,122C106,113.163 113.163,106 122,106H154C162.837,106 170,113.163 170,122V154C170,162.837 162.837,170 154,170H122C113.163,170 106,162.837 106,154V122Z" fill="#000000" fill-opacity="0.0" stroke="#000000" stroke-width="12"/>
  <path d="M149.607,148.607C147.509,150.704 144.836,152.133 141.926,152.712C139.017,153.291 136.001,152.994 133.26,151.858C130.519,150.723 128.176,148.8 126.528,146.334C124.88,143.867 124,140.967 124,138C124,135.033 124.88,132.133 126.528,129.666C128.176,127.2 130.519,125.277 133.26,124.142C136.001,123.006 139.017,122.709 141.926,123.288C144.836,123.867 147.509,125.296 149.607,127.393" fill="#000000" fill-opacity="0.0" stroke="#000000" stroke-linecap="round" stroke-width="8"/>
</svg>
